astro/public/img/icons/oauth-device-authorization.svg

<svg height="70" viewBox="0 0 70 70" width="70" xmlns="http://www.w3.org/2000/svg" xmlns:xlink="http://www.w3.org/1999/xlink"><linearGradient id="a" x1="0%" x2="100%" y1="10.493827%" y2="89.506173%"><stop offset="0" stop-color="#a4aebe"/><stop offset="1" stop-color="#2d53f5"/></linearGradient><path d="m50.4482344 10.3816978v-5.59547682c0-2.63916447-2.1627422-4.78622098-4.8211875-4.78622098h-40.8058594c-2.65844531 0-4.8211875 2.14705651-4.8211875 4.78622098v24.66455512c0 2.6391645 2.16274219 4.7863257 4.8211875 4.7863257h11.2981289l-.6257461 5.0290291h-2.80125c-2.4255703 0-4.39878514 1.9590085-4.39878514 4.3669869 0 2.4078737 1.97321484 4.3668822 4.39878514 4.3668822h23.083207 13.1668243c2.7888046 0 5.0576484-2.2523886 5.0576484-5.0209669v-27.8036804c0-2.2482004-1.4960742-4.155904-3.5517656-4.7936549zm-47.0732344 19.0690783v-24.66455512c0-.79166558.64873828-1.43569877 1.4461875-1.43569877h40.8057539c.7974492 0 1.4461875.64403319 1.4461875 1.43569877v5.36826952h-11.2976016c-2.7886992 0-5.0575429 2.2523885-5.0575429 5.0209669v15.7111222h-25.8967969c-.79744922 0-1.4461875-.6441379-1.4461875-1.4358035zm16.1449453 4.786221h11.1980391v5.0290291h-11.8236797zm-7.8514101 9.396016c0-.5509515.4688086-1.0164647 1.0237851-1.0164647h18.0256641v.3622753c0 .5855037.1025156 1.1474491.2888789 1.6704447h-18.314543c-.5548711 0-1.0237851-.4654085-1.0237851-1.0162553zm38.9564648-.6540847c0 .9210795-.7548398 1.6704447-1.6826484 1.6704447h-13.1668243c-.9277031 0-1.6825429-.7493652-1.6825429-1.6704447v-27.8035757c0-.9210795.7548398-1.6704447 1.6825429-1.6704447h13.1668243c.9278086 0 1.6826484.7493652 1.6826484 1.6704447zm-5.8142813-3.1884407c0 1.340523-1.1013046 2.4339449-2.4517265 2.4339449s-2.4517266-1.0934219-2.4517266-2.4339449 1.1014102-2.433945 2.4517266-2.433945 2.4517265 1.0933173 2.4517265 2.433945z" fill="url(#a)" transform="translate(8 12)"/></svg>

<svg xmlns="http://www.w3.org/2000/svg" width="70" height="70"><linearGradient id="a" x1="0%" x2="100%" y1="10.494%" y2="89.506%"><stop offset="0" stop-color="#a4aebe"/><stop offset="1" stop-color="#2d53f5"/></linearGradient><path fill="url(#a)" d="M50.448 10.382V4.786C50.448 2.147 48.285 0 45.627 0H4.821C2.163 0 0 2.147 0 4.786v24.665c0 2.639 2.163 4.786 4.821 4.786H16.12l-.625 5.03h-2.802c-2.425 0-4.398 1.958-4.398 4.366 0 2.408 1.973 4.367 4.398 4.367h36.25C51.732 48 54 45.748 54 42.979V15.175c0-2.248-1.496-4.156-3.552-4.793zM3.375 29.45V4.786c0-.791.649-1.435 1.446-1.435h40.806c.797 0 1.446.644 1.446 1.435v5.368H35.776c-2.79 0-5.058 2.253-5.058 5.021v15.712H4.821a1.443 1.443 0 0 1-1.446-1.436zm16.145 4.786h11.198v5.029H18.894zm-7.851 9.396c0-.55.468-1.016 1.023-1.016h18.026v.362c0 .585.102 1.147.289 1.67H12.692a1.034 1.034 0 0 1-1.023-1.016zm38.956-.654c0 .921-.755 1.67-1.683 1.67H35.776a1.678 1.678 0 0 1-1.683-1.67V15.175c0-.92.755-1.67 1.683-1.67h13.166c.928 0 1.683.75 1.683 1.67zm-5.814-3.189c0 1.341-1.102 2.434-2.452 2.434s-2.452-1.093-2.452-2.434 1.102-2.433 2.452-2.433 2.452 1.093 2.452 2.433z" transform="translate(8 12)"/></svg>
